dist/arrow-icon.ff6ea8b9.svg

<svg width="16" height="7" viewBox="0 0 16 7" fill="none" xmlns="http://www.w3.org/2000/svg">
<path d="M11.014 6.38C11.3073 5.60267 11.6667 4.93533 12.092 4.378H0.3V2.574H12.092C11.6813 2.01667 11.3293 1.34933 11.036 0.571999H12.708C13.6173 1.64267 14.6147 2.45667 15.7 3.014V3.96C14.6147 4.488 13.6173 5.29467 12.708 6.38H11.014Z" fill="#2C4CBC"/>
</svg>

<svg xmlns="http://www.w3.org/2000/svg" width="16" height="7" fill="none" xmlns:v="https://vecta.io/nano"><path d="M11.014 6.38c.293-.777.653-1.445 1.078-2.002H.3V2.574h11.792c-.411-.557-.763-1.225-1.056-2.002h1.672c.909 1.071 1.907 1.885 2.992 2.442v.946c-1.085.528-2.083 1.335-2.992 2.42h-1.694z" fill="#2c4cbc"/></svg>
